src/assets/bold/lm-file-gear-bold.svg

<svg width="24" height="24" viewBox="0 0 24 24" fill="none" xmlns="http://www.w3.org/2000/svg" fill="currentColor">
<path d="M7.27251 12.375C7.68664 12.3751 8.02251 12.7109 8.02251 13.125V14.3896C8.67605 14.5406 9.25553 14.8839 9.69829 15.3574L10.795 14.7256C11.1536 14.5186 11.6123 14.6414 11.8194 15C12.0264 15.3586 11.9035 15.8172 11.545 16.0244L10.4493 16.6562C10.5426 16.9628 10.5938 17.2879 10.5938 17.625C10.5938 17.9618 10.5425 18.2865 10.4493 18.5928L11.545 19.2256L11.6094 19.2676C11.9174 19.49 12.0134 19.9139 11.8194 20.25C11.6253 20.5862 11.21 20.7152 10.8633 20.5596L10.795 20.5244L9.69829 19.8916C9.25552 20.3653 8.6762 20.7084 8.02251 20.8594V22.125C8.02251 22.5391 7.68664 22.8749 7.27251 22.875C6.8583 22.875 6.52252 22.5392 6.52251 22.125V20.8604C5.86823 20.7093 5.28778 20.3659 4.84478 19.8916L3.75005 20.5244C3.39136 20.7315 2.93278 20.6087 2.72564 20.25C2.51851 19.8913 2.64136 19.4327 3.00005 19.2256L4.09478 18.5928C4.00162 18.2865 3.95122 17.9617 3.95122 17.625C3.95122 17.288 4.00145 16.9628 4.09478 16.6562L3.00005 16.0244C2.64136 15.8173 2.51851 15.3587 2.72564 15C2.91982 14.6638 3.33501 14.5346 3.68169 14.6904L3.75005 14.7256L4.84478 15.3574C5.28772 14.8834 5.86846 14.5406 6.52251 14.3896V13.125C6.52252 12.7108 6.8583 12.375 7.27251 12.375ZM15.3751 1.125C15.5739 1.12501 15.7647 1.20409 15.9053 1.34473L21.1553 6.59473C21.296 6.73538 21.3751 6.9261 21.3751 7.125V19.125C21.3751 19.5228 21.2169 19.9042 20.9356 20.1855C20.6543 20.4668 20.2729 20.625 19.8751 20.625H14.6251C14.2108 20.625 13.8751 20.2892 13.8751 19.875C13.8751 19.4608 14.2108 19.125 14.6251 19.125H19.8751V7.875H15.3751C14.9608 7.875 14.6251 7.53921 14.6251 7.125V2.625H6.37505V10.875C6.37505 11.2892 6.03924 11.625 5.62505 11.625C5.21084 11.625 4.87505 11.2892 4.87505 10.875V2.625C4.87505 2.22717 5.0332 1.84576 5.3145 1.56445C5.59581 1.28316 5.97724 1.125 6.37505 1.125H15.3751ZM7.27251 15.8037C6.26657 15.8037 5.45122 16.6191 5.45122 17.625C5.45122 18.631 6.26657 19.4463 7.27251 19.4463C8.27835 19.4462 9.0938 18.6309 9.0938 17.625C9.0938 16.6191 8.27835 15.8038 7.27251 15.8037ZM16.1251 6.375H18.8145L16.1251 3.68555V6.375Z" fill="black"/>
</svg>

<svg xmlns="http://www.w3.org/2000/svg" width="24" height="24" fill="currentColor" viewBox="0 0 24 24">
  <path d="M7.273 12.375a.75.75 0 0 1 .75.75v1.265a3.317 3.317 0 0 1 1.675.967l1.097-.631a.75.75 0 0 1 .75 1.298l-1.096.632a3.322 3.322 0 0 1 0 1.937l1.096.633.064.042a.75.75 0 0 1-.746 1.292l-.068-.036-1.097-.632a3.315 3.315 0 0 1-1.675.967v1.266a.75.75 0 0 1-1.5 0V20.86a3.317 3.317 0 0 1-1.678-.968l-1.095.632A.75.75 0 1 1 3 19.226l1.095-.633a3.32 3.32 0 0 1 0-1.937L3 16.024a.75.75 0 0 1 .682-1.334l.068.036 1.095.631a3.318 3.318 0 0 1 1.678-.967v-1.265a.75.75 0 0 1 .75-.75Zm8.102-11.25c.199 0 .39.08.53.22l5.25 5.25c.141.14.22.331.22.53v12a1.5 1.5 0 0 1-1.5 1.5h-5.25a.75.75 0 1 1 0-1.5h5.25V7.875h-4.5a.75.75 0 0 1-.75-.75v-4.5h-8.25v8.25a.75.75 0 0 1-1.5 0v-8.25a1.5 1.5 0 0 1 1.5-1.5h9ZM7.273 15.804a1.821 1.821 0 1 0 0 3.642 1.821 1.821 0 0 0 0-3.642Zm8.852-9.429h2.69l-2.69-2.69v2.69Z"/>
</svg>
